X:38
T: HINAUS IN DIE FERNE MIT LAUTEM HOERNERKLANG
N: B0047
O: Europa, Mitteleuropa, Deutschland
R: Kriegs -, Sieges -, Soldaten - Lied
M: 2/4
L: 1/16
K: Bb
F2 | B4B2d2 | B4B2
F2 | B3FB2d2 | B4z2
d2 | c4d2=e2 | f4c2
d2 | c3BA2G2 | F4z2
F2 | c4d4 | c6
c2 | d3cB2d2 | c4z2
F2 | D2F2B2d2 | f4e3
e | d4c4 | B4z2
F2 | c4d4 | c6
c2 | d3cB2d2 | c4z2
F2 | D2F2B2d2 | f4e3
e | d4c4 | B4z2

